X: 24557
T: Lumps Of Pudding
R: jig
M: 6/8
K: Gminor
M:6/4
A2|B4 G2 B3 g f2|d2 c2 d2 G4 AB|A4 F2 A3 f d2|c3 B AG F4 fg|
a2 g2 f2 d2 g2 f2|d3 c B2 f4 d2|cd cA G^F G3 A Bc|d4 B2 G4||
A/B/c|d2 Bc dB d2 Bc dB|d2 Bc dB G4 AB|c2 AB cA c2 AB cA|c2 AB cA F2 A2 Bc|
d2 Bc dB d2 Bc dc|d2 Bc dc f4 d2|cd cA G^F G3 A Bc|d4 B2 G4||
dc|B2 d2 g2 B2 d2 g2|B2 d2 g2 G4 AB|a2 c2 f2 a2 c2 f2|A2 c2 f2 F4 dc|
B2 d2 g2 B2 d2 g2|B2 d2 g2 f4 d2|cd cA G^F G3 A Bc|d4 B2 G4||

